X:137
T:Young Fox. JJo.137, The
B:J.Johnson Choice Collection Vol 8 1758
Z:vmp.Simon Wilson 2013 www.village-music-project.org.uk
Z:Dance added by John Chambers 2017
M:6/8
L:1/8
%Q:3/8=100
K:D
d3f2d | gecd2A | (B/c/d)c (dAF) | (BGE) (AFD) | (d/e/f)e (fd)B | (ec)A (^GB)d |
f3(ed)c | (dc)BA3 :: (c/d/e)d (ec)A | (Ac)e (ed)c | (d/e/f)e (fd)(B | B)df- fed |
(e/f/g)f gec | (fd)B ^Ace | (gf)e (dc)B | gf^AB2c | (B/c/d)c dAF | (DA)=c (BA)G |
(B/c/d)B (ge)g | (Be)dc3 | (f/g/a)f (ge)c | (dB)^G (AB)c | (dA)F (Bg)f | edcd3 :|
%%begintext align
%% The 1st Man cast off one Cu, and turn the 3d
%% Wo. and stand in the 2d Man's Place .| the 1st
%% Wo. do the same with the 3d Man ..| then hands
%% 4 round at Bottom and lead thro the 2d Cu.
%% and cast off and turn .|
%%endtext
